X:7811
T:Up Sligo
T:Creel of Turf, The
T:Lark's March, The
T:Green Meadow, The
O:england
R:jig
D:Molloy, Peoples, Brady
M:6/8
L:1/8
K:Edor
EBB BAG|FDF AGF|EBB GBd|AGF EFD|
EBB BAG|FDF ABc|dcd B/c/dB|AGF ~E3:|
|:Bee ede|~f3 dBA|Bee ede|fec d2A|
Bee ede|fef dBA|BdB GBd|AGF ~E3:|
"Variations:"
EBB BAG|FAd AFD|EBB EBB|AGF EFD|
EBB BAG|FAd ABc|ded BGB|AGF ~E3:|
|:Bee efg|fef dBA|Bee Bee|fec d2A|
Bee efg|fef dBA|BdB GBd|AGF ~E3:|


